X:1
T:Alan's Jig
M:6/8
L:1/8
Q:1/4=150
C:Pat Clark
Z:Alan Paterson  9 May 2003
K:D
|:"A7"A|"D"A>FA BA^G|"D"A>df a2 ^g|"Em"=gfe "D/F#"dcd|"Em/G"Bed cBA|!
"D"A>FA BA^G|"D"A>df aAa|"A7/C#"AgA f>ed|"A7"Aec "D"d2:||f|!
"A7"e2 A- A>^GA|"D"f2 A- A>^GA|"G"g>ab "D/F#"afd|"E7"e>fd "A7"e2 A|!
"D"A>FA BA^G|"D"A>df aAa|"A7/C#"AgA f>ed|"A7"Aec "D"d2:|
